X: 16452
T: Hag At The Spinning Wheel, The
R: jig
M: 6/8
K: Gmajor
D|:~G3 B2G|BcA B2D|~G3 cAG|F2G AFD|
~G3 B2G|BcA B2g|fed cAF|1 AGF GED:|2 AGF GBc||
|:BAG AFD|~D3 AFD|~D3 AFD|EFG ABc|
BAG AFD|~D3 AFD|ded cAG|1 AGF GBc:|2 AGF G2d||
|:GB/c/d gba|gdB ecA|dBG cAG|~F3 AFD|
GB/c/d gba|gdB ecA|fed cAF|1 AGF GED:|2 AGF ~G2c||
|:BAG Afd|Bgd Afd|Bgd AFD|EFG ABc|
BAG AFD|~D3 AFD|ded cAG|1 AGF ~G2c:|2 AGF G2||

